X:1
T:Title
%%score ( 1 2 ) ( 3 4 )
L:1/8
Q:1/4=83
M:6/8
K:D
V:1 treble nm="Oboe, Soprano"
V:2 treble 
V:3 bass nm="Oboe, Bass"
V:4 bass 
V:1
 [DF]2 [DF] [DF]2 D | [DA]2 [DA] [DF]3 | [A,D]2 [A,D] [A,C]2 [A,D] | [CE]2 [DF] [CE]3 | %4
 [DF]2 [FA] [Fd]2 [DA] | [DB]2 [Dd] [DA]3 | [DF]2 D [CE]2 [CF] | D6 | [FA]2 [FA] [DF]2 [Fd] | c6 | %10
 [EG]2 [EG] [CE]2 [GB] | A6 | [Fd]2 [Fd] [FA]2 [DF] | [DA]2 [DA] D2 E | [DF]2 D [CE]2 [CF] | %15
 D2 B, .A,3 |] %16
V:2
 x6 | x6 | x6 | x6 | x6 | x6 | x6 | x6 | x6 | G2 G .G3 | x6 | F2 F .F3 | x6 | x6 | x6 | x6 |] %16
V:3
 [D,A,]2 [D,A,] [D,A,]2 [D,F,] | [D,F,]2 [D,F,] [D,A,]3 | [F,A,]2 [F,A,] [E,G,]2 [D,F,] | %3
w: 1.~When~ my~ sky~ is~|clear~ and~ bright,~|When~ I~ find~ it~|
 [A,,A,]2 [A,,A,] [A,,A,]3 | [D,A,]2 [D,A,] [D,A,]2 [D,F,] | [G,,G,]2 [B,,G,] [D,F,]3 | %6
w: dark~ as~ night;~|Just~ to~ trust~ and~|do~ the~ right,~|
 [A,,A,]2 [A,,F,] [A,,G,]2 [A,,A,] | [D,F,]6 | [D,A,]2 [D,A,] [D,A,]2 [D,A,] | %9
w: That's~ e nough~ for~|me.~||
 [E,A,]2 [E,A,] .[E,A,]3 | [A,,C]2 [A,,C] [A,,A,]2 [A,,C] | [D,D]2 [D,D] .[D,D]3 | %12
w: |||
 [D,A,]2 [D,A,] [D,D]2 [D,A,] | [=C,F,]2 [C,F,] F,2 ^G, | [A,,A,]2 [A,,F,] [A,,G,]2 [A,,A,] | %15
w: Just~ to~ trust~ and~|do~ the~ right,~ *||
 F,2 G, .F,3 |] %16
w: |
V:4
 x6 | x6 | x6 | x6 | x6 | x6 | x6 | x6 | x6 | x6 | x6 | x6 | x6 | z3 B,,3 | x6 | D,6 |] %16

